X:1
T:Cordero Palazón
T:Misa - Cordero
T:Solemne
C:Francisco Palazón
S:
M:2/4
L:1/8
Q:1/4=55
K:Dm
%
    zA | "Dm"A2 FG | A3 A | "Bb"cB AG | F2 FG |
w: Cor-de-ro de Dios, que qui-tas el pe-ca-do del
    "A7"A2 A2 | z2 DD | "Gm"G2 FG | "A7"A2 A2 | z2 :
w: mun-do, ten pie-dad de no-so-tros.
    zD | "Dm"D2 DE | F3 F | "Bb"GE FG | A2 GF |
w: Cor-de-ro de Dios, que qui-tas el pe-ca-do del
    "A7"D2 D2 | z2 CD | "Gm"E2 FE | "A7"D2 D2 | z2 :
w: mun-do, ten pie-dad de no-so-tros.
    zA | "F"A2 FG | A3 A | "Bb"cB AG | F2 FG |
w: Cor-de-ro de Dios, que qui-tas el pe-ca-do del
    [M:3/4] "A7"A2 A2 z2 | [M:2/4]"Gm"(GA) BG | "Dm".A2 (GF) | "Am"E2 C2 | "Dm"D4 |]
w: mun-do, da--nos la paz, da--nos la paz.